X: 21383
Q: "Slow with feeling."
M: 2/4
L: 1/16
K: D
E4- E(EFG) | F4 z2d2 |\
c4 c2dc | B4 z2f2 |
e3Ac3B | A4 z2FG |\
E4- E(EFG) | F4 z2FG |\
E3EB3A | D4 z2 |]


